glitch-avatars-svg/base_avatar/Avatar.fla/placeholder symbols 3/Avatar_backFootRight3.svg

<?xml version="1.0" encoding="UTF-8" standalone="no"?>
<!-- Generator: flash2svg, http://dissentgraphics.com/tools/flash2svg -->

<svg
   xmlns:dc="http://purl.org/dc/elements/1.1/"
   xmlns:cc="http://creativecommons.org/ns#"
   xmlns:rdf="http://www.w3.org/1999/02/22-rdf-syntax-ns#"
   xmlns:svg="http://www.w3.org/2000/svg"
   xmlns="http://www.w3.org/2000/svg"
   xmlns:sodipodi="http://sodipodi.sourceforge.net/DTD/sodipodi-0.dtd"
   xmlns:inkscape="http://www.inkscape.org/namespaces/inkscape"
   id="Avatar"
   image-rendering="auto"
   version="1.1"
   x="0px"
   y="0px"
   width="10.726446"
   height="13.462198"
   viewBox="0 0 10.726446 13.462198"
   inkscape:version="0.48.4 r9939"
   sodipodi:docname="Avatar_backFootRight3.svg">
  <metadata
     id="metadata3101">
    <rdf:RDF>
      <cc:Work
         rdf:about="">
        <dc:format>image/svg+xml</dc:format>
        <dc:type
           rdf:resource="http://purl.org/dc/dcmitype/StillImage" />
      </cc:Work>
    </rdf:RDF>
  </metadata>
  <sodipodi:namedview
     pagecolor="#ffffff"
     bordercolor="#666666"
     borderopacity="1"
     objecttolerance="10"
     gridtolerance="10"
     guidetolerance="10"
     inkscape:pageopacity="0"
     inkscape:pageshadow="2"
     inkscape:window-width="640"
     inkscape:window-height="480"
     id="namedview3099"
     showgrid="false"
     fit-margin-top="0"
     fit-margin-left="0"
     fit-margin-right="0"
     fit-margin-bottom="0"
     inkscape:zoom="1.8730159"
     inkscape:cx="38.4"
     inkscape:cy="-52"
     inkscape:window-x="0"
     inkscape:window-y="0"
     inkscape:window-maximized="0"
     inkscape:current-layer="Avatar" />
  <defs
     id="defs3083">
    <radialGradient
       gradientUnits="userSpaceOnUse"
       color-interpolation="sRGB"
       r="11.847106"
       cx="2.7"
       cy="-0.34900001"
       fx="2.7"
       fy="-0.34900001"
       gradientTransform="matrix(-0.41378784,0.91117859,-0.91117859,-0.41378784,3.55,-2.849)"
       id="radialGradient">
      <stop
         stop-color="#FFF"
         stop-opacity="1"
         offset="0"
         id="stop3086" />
      <stop
         stop-color="#FFF"
         stop-opacity="0.40784313725490196"
         offset="1"
         id="stop3088" />
    </radialGradient>
    <radialGradient
       gradientUnits="userSpaceOnUse"
       color-interpolation="sRGB"
       r="11.856"
       cx="6.2519999"
       cy="-3.148"
       fx="6.2519999"
       fy="-3.148"
       gradientTransform="matrix(-0.413,0.911,-0.911,-0.413,2.5,-7.099)"
       id="radialGradient1">
      <stop
         stop-color="#FFF"
         stop-opacity="1"
         offset="0"
         id="stop3091" />
      <stop
         stop-color="#FFF"
         stop-opacity="0.40784313725490196"
         offset="1"
         id="stop3093" />
    </radialGradient>
  </defs>
  <g
     id="backFootRight4"
     overflow="visible"
     style="overflow:visible"
     transform="translate(4.4,2.4621987)">
    <g
       id="backFootRight3_0">
      <g
         id="element">
        <path
           id="path"
           d="m 3.1,-0.55 c -0.5,-1 -1.8,-1.8 -3.15,-1.9 -1.3,-0.1 -2.65,0.4 -3.65,2.05 -0.4,0.7 -0.6,1.35 -0.65,1.95 l -0.05,0 c 0,0.15 0.05,0.3 0.15,0.45 0.05,0.8 0.45,1.6 1.15,2.4 1.3,1.5 5.1,5 6.25,5.7 l 0.15,0.1 0,0.1 0.3,0.05 C 4.1,10.7 4.55,10.95 4.95,11 5.15,11 5.3,10.95 5.5,10.85 6.1,10.55 5.75,9.8 5.75,9.8 l 0.1,0.4 -0.1,-0.4 0.05,0 C 5.85,9.8 6.1,9.75 6.3,9.1 6.5,8.45 5.5,7.7 5.5,7.7 L 5.95,8.15 5.5,7.7 c 0.1,0 0.2,-0.05 0.35,-0.5 0.1,-0.6 0,-1.85 -1.1,-2.1 L 4.45,5.05 C 4.25,5.05 4.35,4.95 4.2,3.3 4.1,2.35 3.1,-0.55 3.1,-0.55 z M 1.3,-1.8 1.85,-1.45 3.15,1.7 3.1,2.95 C 3,3.35 2.8,3.7 2.35,4 1.95,4.25 1.35,4.4 0.7,4.45 0.4,3.75 0.15,2.7 0.05,1.4 -0.05,0.1 1,-1.4 1.3,-1.8 z M 2.9,-0.25 3,-0.05 3.1,0.65 2.35,-1 c 0.25,0.2 0.45,0.5 0.55,0.75 z m 0.55,2.8 0.45,3.2 C 3.8,6.3 3.55,6.9 3,7.1 L 2.55,7.15 0.9,4.75 C 1.45,4.65 2.1,4.5 2.55,4.2 3.05,3.9 3.3,3.45 3.35,2.95 l 0.1,-0.4 z M 3.4,1 C 3.7,1.75 3.9,2.55 3.9,3.35 L 3.95,4.05 3.45,1.65 3.4,1 z m 1.05,4.35 0.25,0 C 4.8,5.5 5.05,5.7 5,6.25 L 4.9,7.2 4.55,6.8 C 4.4,6.65 4.3,6.25 4.25,5.8 L 4.3,5.3 4.45,5.35 z M 4.3,7 c 0.2,0.25 0.35,0.45 0.55,0.55 l 0,0.15 0.35,0.25 C 5.3,8.05 5.35,8.2 5.4,8.35 5.35,8.8 5.05,9.3 5.05,9.3 l 0,0.05 -0.1,0.2 0.1,-0.2 c 0,0 -0.1,0.4 -0.55,0.65 L 4.2,10.1 2.75,7.45 3.05,7.35 c 0.5,-0.15 0.8,-0.55 1,-1 L 4.3,7 z M 0.85,6.9 -1.8,4.25 -0.65,4.65 0.55,4.8 2.2,7.2 C 1.75,7.15 1.25,7.05 0.85,6.9 z M 2.05,7.5 2.4,7.45 c 0.55,1 1.15,2 1.45,2.65 C 3.35,9.6 2.3,8.5 1.4,7.55 L 1.25,7.3 2.05,7.5 z M 4.7,10.25 C 5.05,10.1 5.25,9.75 5.3,9.55 L 5.5,9.9 5.55,10.2 5.5,9.9 c 0,0 0.2,0.55 -0.15,0.7 l -0.4,0.1 C 4.75,10.65 4.5,10.6 4.3,10.4 L 4.7,10.25 z M 3,9.6 C 2.2,9 0.75,7.85 -0.5,6.65 -0.15,6.8 0.2,7 0.65,7.1 L 3,9.6 z M 5.5,7.55 5.15,7.35 5.3,6.3 5.25,5.75 C 5.55,6.2 5.55,6.8 5.55,7.1 L 5.4,7.45 5.5,7.4 5.5,7.55 z M 6,9.05 C 5.9,9.45 5.75,9.5 5.75,9.5 L 5.35,9.4 c 0.1,-0.15 0.3,-0.6 0.3,-1.05 l 0,-0.1 C 5.9,8.5 6.05,8.8 6,9.05 z M -1.25,-2.05 C -1.7,-1.6 -2.4,-0.9 -2.5,0.15 L -2.75,1 C -2.9,1.8 -3.05,2.55 -2.7,3.45 -3.35,3 -3.8,2.5 -4,1.9 c -0.05,-0.7 0.15,-1.35 0.55,-2.15 0.6,-0.95 1.35,-1.55 2.2,-1.8 z m 0.7,-0.15 0.5,0.05 L 1,-1.9 C 0.65,-1.45 -0.35,0.05 -0.25,1.4 -0.15,2.75 0.1,3.7 0.4,4.5 0,4.5 -0.35,4.5 -0.6,4.4 -1,4.3 -1.6,4.05 -2.2,3.75 -2.8,2.8 -2.65,2 -2.45,1.1 L -2.2,0.2 c 0.2,-1.5 1.5,-2.35 1.65,-2.4 z m -1.1,7.05 c 0.5,0.4 1.1,1 1.8,1.75 -0.6,-0.25 -1.1,-0.55 -1.45,-0.8 l 0,0.05 -1.6,-1.6 C -3.25,3.8 -3.5,3.4 -3.7,3 c 0.4,0.4 0.85,0.7 1.3,0.95 l 0.75,0.9 z"
           inkscape:connector-curvature="0"
           style="fill:url(#radialGradient1)" />
      </g>
    </g>
  </g>
</svg>

<?xml version="1.0" encoding="utf-8"?>
<!-- Generator: flash2svg, http://dissentgraphics.com/tools/flash2svg -->
<svg xmlns:xlink="http://www.w3.org/1999/xlink" id="Avatar" image-rendering="auto" baseProfile="basic" version="1.1" x="0px" y="0px" width="68" height="126" xmlns="http://www.w3.org/2000/svg" viewBox="0 0 68 126">
  <defs>
    <radialGradient gradientUnits="userSpaceOnUse" color-interpolation="sRGB" r="11.847105759172486" cx="2.7" cy="-0.349" fx="2.6999999999999993" fy="-0.349" gradientTransform="matrix(-0.413787841796875 0.9111785888671875 -0.9111785888671875 -0.413787841796875 3.55 -2.849)" id="radialGradient">
      <stop stop-color="#FFF" stop-opacity="1" offset="0"/>
      <stop stop-color="#FFF" stop-opacity="0.40784313725490196" offset="1"/>
    </radialGradient>
    <radialGradient gradientUnits="userSpaceOnUse" color-interpolation="sRGB" r="11.856" cx="6.252" cy="-3.148" fx="6.252" fy="-3.148" gradientTransform="matrix(-0.413 0.911 -0.911 -0.413 2.5 -7.099)" id="radialGradient1">
      <stop stop-color="#FFF" stop-opacity="1" offset="0"/>
      <stop stop-color="#FFF" stop-opacity="0.40784313725490196" offset="1"/>
    </radialGradient>
  </defs>
  <g id="backFootRight4" overflow="visible">
    <g id="backFootRight3_0">
      <g id="element">
        <path id="path" fill="url(#radialGradient1)" d="M3.1,-0.55 C2.6,-1.55 1.3,-2.35 -0.05,-2.45 -1.35,-2.55 -2.7,-2.05 -3.7,-0.4 -4.1,0.3 -4.3,0.95 -4.35,1.55 L-4.4,1.55 C-4.4,1.7 -4.35,1.85 -4.25,2 -4.2,2.8 -3.8,3.6 -3.1,4.4 -1.8,5.9 2,9.4 3.15,10.1 L3.3,10.2 3.3,10.3 3.6,10.35 C4.1,10.7 4.55,10.95 4.95,11 5.15,11 5.3,10.95 5.5,10.85 6.1,10.55 5.75,9.8 5.75,9.8 L5.85,10.2 L5.75,9.8 5.8,9.8 C5.85,9.8 6.1,9.75 6.3,9.1 6.5,8.45 5.5,7.7 5.5,7.7 L5.95,8.15 L5.5,7.7 C5.6,7.7 5.7,7.65 5.85,7.2 5.95,6.6 5.85,5.35 4.75,5.1 L4.45,5.05 C4.25,5.05 4.35,4.95 4.2,3.3 4.1,2.35 3.1,-0.55 3.1,-0.55z M1.3,-1.8 L1.85,-1.45 3.15,1.7 3.1,2.95 C3,3.35 2.8,3.7 2.35,4 1.95,4.25 1.35,4.4 0.7,4.45 0.4,3.75 0.15,2.7 0.05,1.4 -0.05,0.1 1,-1.4 1.3,-1.8z M2.9,-0.25 L3,-0.05 3.1,0.65 2.35,-1 C2.6,-0.8 2.8,-0.5 2.9,-0.25z M3.45,2.55 L3.9,5.75 C3.8,6.3 3.55,6.9 3,7.1 L2.55,7.15 0.9,4.75 C1.45,4.65 2.1,4.5 2.55,4.2 3.05,3.9 3.3,3.45 3.35,2.95 L3.45,2.55z M3.4,1 C3.7,1.75 3.9,2.55 3.9,3.35 L3.95,4.05 3.45,1.65 3.4,1z M4.45,5.35 L4.7,5.35 C4.8,5.5 5.05,5.7 5,6.25 L4.9,7.2 4.55,6.8 C4.4,6.65 4.3,6.25 4.25,5.8 L4.3,5.3 4.45,5.35z M4.3,7 C4.5,7.25 4.65,7.45 4.85,7.55 L4.85,7.7 5.2,7.95 C5.3,8.05 5.35,8.2 5.4,8.35 5.35,8.8 5.05,9.3 5.05,9.3 L5.05,9.35 4.95,9.55 L5.05,9.35 C5.05,9.35 4.95,9.75 4.5,10 L4.2,10.1 2.75,7.45 3.05,7.35 C3.55,7.2 3.85,6.8 4.05,6.35 L4.3,7z M0.85,6.9 L-1.8,4.25 -0.65,4.65 0.55,4.8 2.2,7.2 C1.75,7.15 1.25,7.05 0.85,6.9z M2.05,7.5 L2.4,7.45 C2.95,8.45 3.55,9.45 3.85,10.1 3.35,9.6 2.3,8.5 1.4,7.55 L1.25,7.3 2.05,7.5z M4.7,10.25 C5.05,10.1 5.25,9.75 5.3,9.55 L5.5,9.9 5.55,10.2 L5.5,9.9 C5.5,9.9 5.7,10.45 5.35,10.6 L4.95,10.7 C4.75,10.65 4.5,10.6 4.3,10.4 L4.7,10.25z M3,9.6 C2.2,9 0.75,7.85 -0.5,6.65 -0.15,6.8 0.2,7 0.65,7.1 L3,9.6z M5.5,7.55 L5.15,7.35 5.3,6.3 5.25,5.75 C5.55,6.2 5.55,6.8 5.55,7.1 L5.4,7.45 5.5,7.4 5.5,7.55z M6,9.05 C5.9,9.45 5.75,9.5 5.75,9.5 L5.35,9.4 C5.45,9.25 5.65,8.8 5.65,8.35 L5.65,8.25 C5.9,8.5 6.05,8.8 6,9.05z M-1.25,-2.05 C-1.7,-1.6 -2.4,-0.9 -2.5,0.15 L-2.75,1 C-2.9,1.8 -3.05,2.55 -2.7,3.45 -3.35,3 -3.8,2.5 -4,1.9 -4.05,1.2 -3.85,0.55 -3.45,-0.25 -2.85,-1.2 -2.1,-1.8 -1.25,-2.05z M-0.55,-2.2 L-0.05,-2.15 1,-1.9 C0.65,-1.45 -0.35,0.05 -0.25,1.4 -0.15,2.75 0.1,3.7 0.4,4.5 0,4.5 -0.35,4.5 -0.6,4.4 -1,4.3 -1.6,4.05 -2.2,3.75 -2.8,2.8 -2.65,2 -2.45,1.1 L-2.2,0.2 C-2,-1.3 -0.7,-2.15 -0.55,-2.2z M-1.65,4.85 C-1.15,5.25 -0.55,5.85 0.15,6.6 -0.45,6.35 -0.95,6.05 -1.3,5.8 L-1.3,5.85 -2.9,4.25 C-3.25,3.8 -3.5,3.4 -3.7,3 -3.3,3.4 -2.85,3.7 -2.4,3.95 L-1.65,4.85z"/>
      </g>
    </g>
  </g>
</svg>
